X:1603
T:Finnskogspols
R:Finnskogspols
S:Trad
O:Värmland
Z:ABC-transkribering av Jonas Hallgren
N:Ett försök att skriva ner polskan som den spelas, med kort 3:a,
N:samt en mer traditionell nedteckning under
M:2/4
L:1/16
Q:80
K:D
|: a2gg2ff2  | g2ff2eef | g2fe2dcB | ABcd2AFD | a2gg2ff2  | g2ff2eef | g2fe2dcB | ABcd- d4:| 
|: A2FA2dfa  | a3e2cef | g2fe2dcB | ABcd2AFD | D2FA2dfa  | a3e2cef | g2fe2dcB | ABcd- d4 :|
(:musicend:)
(:music:)
